X:32
M:3/4
L:1/4
K:F
F A F | G2 c | B2 A | G F2 | G G G | A2 c | c2 =B | c3 | F A F | G2 c | B2 A | G F2 | G G G | A2 c | c2 =B | c3 | G G G | A2 F | B2 A | G3 | !sintro!c c c | B2 A | G G2 | !fermata!F3 !eintro!|]
